assets/img/idobao-full-logo.svg

<svg viewBox="0 0 1280 372" version="1.1" xmlns="http://www.w3.org/2000/svg" xmlns:xlink="http://www.w3.org/1999/xlink">
  <style>
    path, polygon, polyline { fill: #31A4D4 }
    @media (prefers-color-scheme: dark) {
      path, polygon, polyline { fill: white; }
    }    
  </style>
  <g transform="translate(566.919765, 223.286937)">
    <polygon points="617.956947 55.5075832 570.30137 55.3823386 563.557241 39.0638454" />
    <polygon points="440.046967 55.3823386 449.379421 28.4547456 487.880683 28.4547456 497.659491 55.2529101" />
    <polyline points="367.482143 55.3823386 349.302715 55.3823386 368.696062 50.9975538" />
    <path d="M246.076321,55.3671771 L166.076321,55.3671771 C187.63566,52.0761871 203.26813,47.8916181 212.973732,42.8134703 C222.679334,37.7353224 233.670554,27.9898914 245.947393,13.5771771 L246.076321,55.3671771 Z" />
    <path d="M166.794521,55.4130626 L0,54.6589422 C23.9554159,49.8537475 40.5998223,44.3398144 49.9332192,38.1171429 C59.266616,31.8944714 69.5933854,19.4264446 80.9135274,0.713062622 C93.6703047,20.4881679 105.127007,33.6102404 115.283635,40.0792799 C125.440263,46.5483195 142.610558,51.6595804 166.794521,55.4130626 Z" />
  </g>
  <path d="M1185.84736,93.9334638 C1238.99491,93.9334638 1279.56164,133.986693 1279.56164,186.363992 C1279.56164,238.741292 1238.99491,278.794521 1185.84736,278.794521 C1132.6998,278.794521 1092.13307,238.741292 1092.13307,186.363992 C1092.13307,133.986693 1132.6998,93.9334638 1185.84736,93.9334638 Z M1186.12916,110.215264 C1142.05558,110.215264 1108.41487,143.430137 1108.41487,186.864971 C1108.41487,230.299804 1142.05558,263.514677 1186.12916,263.514677 C1230.20274,263.514677 1263.84344,230.299804 1263.84344,186.864971 C1263.84344,143.430137 1230.20274,110.215264 1186.12916,110.215264 Z M1186.12916,155.992172 C1203.58826,155.992172 1217.00196,169.405871 1217.00196,186.864971 C1217.00196,204.32407 1203.58826,217.737769 1186.12916,217.737769 C1168.67006,217.737769 1155.25636,204.32407 1155.25636,186.864971 C1155.25636,169.405871 1168.67006,155.992172 1186.12916,155.992172 Z" />
  <path d="M1062.7319,98.9432485 L1138.47358,278.669276 L1064.01663,278.669276 L1054.38356,252.737378 L1016.45609,252.737378 L1007.41928,278.669276 L933.072407,278.669276 L1008.81409,98.9432485 L1062.7319,98.9432485 Z M1054.04305,113.972603 L1017.50294,113.972603 L954.389066,265.617661 L999.45817,265.617661 L1008.29119,241.509198 L1061.15695,241.509198 L1070.91671,265.617661 L1116.79,265.617661 L1054.04305,113.972603 Z M1035.77299,170.332681 L1045.79256,197.886497 L1025.75342,197.886497 L1035.77299,170.332681 Z" />
  <path d="M903.758904,98.9432485 C941.758121,98.9432485 965.494129,120.605871 965.494129,150.645793 C965.494129,169.38865 963.490093,172.451076 954.023361,185.792564 C964.709516,197.014432 965.494129,196.9998 965.494129,225.680651 C965.494129,256.223704 949.717417,278.669276 911.204697,278.669276 L911.204697,278.669276 L811.585127,278.669276 L811.585127,98.9432485 Z M901.847283,113.972603 L827.866928,113.972603 L827.866928,263.013699 L907.823412,263.013699 L908.745192,263.009199 C938.980989,262.712373 951.124633,247.745676 951.124633,222.66206 C951.124633,204.138381 948.213801,191.899804 932.758295,185.93816 C943.886259,179.763601 949.575587,168.425073 949.575587,152.882216 C949.575587,127.971062 932.346148,113.972603 901.847283,113.972603 L901.847283,113.972603 Z M896.333986,202.896282 C904.064137,202.896282 908.023483,208.873866 908.023483,218.551859 C908.023483,228.229852 904.064137,234.207436 896.333986,234.207436 L896.333986,234.207436 L872.95499,234.207436 L872.95499,202.896282 Z M894.872798,140.273973 C903.870635,140.273973 908.023483,145.90998 908.023483,155.92955 C908.023483,165.949119 903.870635,171.585127 894.872798,171.585127 L894.872798,171.585127 L872.95499,171.585127 L872.95499,140.273973 Z" />
  <path d="M733.714286,93.9334638 C786.86184,93.9334638 827.428571,133.986693 827.428571,186.363992 C827.428571,238.741292 786.86184,278.794521 733.714286,278.794521 C680.566732,278.794521 640,238.741292 640,186.363992 C640,133.986693 680.566732,93.9334638 733.714286,93.9334638 Z M733.996086,110.215264 C689.922505,110.215264 656.2818,143.430137 656.2818,186.864971 C656.2818,230.299804 689.922505,263.514677 733.996086,263.514677 C778.069667,263.514677 811.710372,230.299804 811.710372,186.864971 C811.710372,143.430137 778.069667,110.215264 733.996086,110.215264 Z M733.996086,155.992172 C751.455186,155.992172 764.868885,169.405871 764.868885,186.864971 C764.868885,204.32407 751.455186,217.737769 733.996086,217.737769 C716.536986,217.737769 703.123288,204.32407 703.123288,186.864971 C703.123288,169.405871 716.536986,155.992172 733.996086,155.992172 Z" />
  <path d="M561.09589,97.6908023 C616.95499,97.6908023 655.029354,136.337713 655.029354,187.866928 C655.029354,239.396142 616.95499,278.043053 561.09589,278.043053 L561.09589,278.043053 L482.191781,278.043053 L482.191781,97.6908023 Z M560.53229,113.972603 L493.463796,113.972603 L493.463796,263.013699 L560.53229,263.013699 L561.952144,263.004139 C608.656552,262.373886 640.375734,230.650489 640.375734,188.493151 C640.375734,145.90998 608.012524,113.972603 560.53229,113.972603 L560.53229,113.972603 Z M560.53229,157.620352 C580.120548,157.620352 593.534247,170.821135 593.534247,188.493151 C593.534247,206.165166 580.333464,219.365949 560.53229,219.365949 L560.53229,219.365949 L540.305284,219.365949 L540.305284,157.620352 Z" />
  <path d="M483.146771,97.6908023 L483.146771,278.043053 L408,278.043053 L408,97.6908023 L483.146771,97.6908023 Z M469.89589,114.029334 L421.776908,114.029334 L421.776908,263.589737 L469.89589,263.589737 L469.89589,114.029334 Z" />
  <path d="M162.068395,0.725818212 C150.551217,1.70570291 141.100174,5.7441637 120.896713,18.3189434 C114.813985,22.104084 114.759359,21.7986337 122.304127,26.193046 C134.696119,33.4114485 157.956208,47.076075 160.648931,48.7198052 C162.864484,50.0719319 164.138547,50.3724952 165.525878,49.8674837 C168.270818,48.8680504 216.698073,20.1785251 216.67319,19.5659953 C216.633005,18.5543438 196.125889,6.87799538 190.476953,4.65024422 C185.405603,2.6497481 172.220735,-0.298865873 169.795516,0.0245042233 C169.301476,0.0904814974 165.82391,0.406520787 162.068395,0.725818212 M237.394579,41.2355594 C232.757966,43.9303651 227.699843,46.8707385 226.154305,47.7700808 C224.608768,48.669423 220.634528,50.9342836 217.322662,52.8030151 C209.671247,57.1209844 174.113443,77.7551289 145.465196,94.5028596 C140.16621,97.6010408 127.340254,105.016386 116.963073,110.982478 C106.585892,116.94857 96.6502925,122.723039 94.8839638,123.81481 C93.117635,124.906581 87.9695893,127.955648 83.4429706,130.591679 L75.2134843,135.383876 L75.1765518,139.587515 C75.1564799,141.899879 75.1436339,184.914518 75.146771,235.175423 C75.157283,325.748915 75.1717348,326.570964 76.7718678,327.880123 C77.6606526,328.607165 88.3501528,334.947648 100.527384,341.970084 C112.705418,348.993326 124.004302,355.545561 125.63655,356.531053 C134.241783,361.72582 146.929643,368.063887 151.88821,369.643574 C159.022572,371.917289 172.661842,372.67976 180.706666,371.255463 C191.177785,369.402033 194.094635,367.955195 232.175881,345.717209 C237.033285,342.880698 241.549466,340.216488 242.21184,339.79701 C242.874213,339.377531 249.01622,335.849405 255.860744,331.95655 C312.441874,299.775078 319.059986,295.420072 326.227267,285.656132 C330.687247,279.581345 334.732943,271.095968 336.668679,263.757916 C338.063275,258.472973 338.155606,253.634078 338.155606,186.061844 C338.155606,104.483383 338.580328,110.233697 331.49173,95.9086349 C328.415106,89.6905337 326.457693,87.0061949 320.893757,81.3774567 C315.121876,75.5385765 312.211448,73.4065642 302.026155,67.5572175 C295.402421,63.7529279 286.731353,58.7352914 282.757114,56.4068244 C259.99315,43.0712798 247.932336,36.3072933 246.943192,36.3209393 C246.328189,36.3298373 242.031192,38.5415586 237.394579,41.2355594 M67.7781731,49.8070825 C36.612389,67.4885189 26.5860898,73.4603198 22.1249062,77.0004797 C13.3405302,83.9702701 5.10081486,97.0328791 1.49274324,109.707426 C0.0941589089,114.619922 0,119.487238 0,186.755115 L0,258.558721 L1.8783077,265.012977 C4.74041355,274.845231 9.63748799,283.369691 16.6401503,290.70818 C23.2629299,297.64812 27.9083731,301.054354 38.6481696,306.839788 L45.6394676,310.606654 L46.1565299,306.858344 C46.4406301,304.797016 46.6792742,262.044826 46.6857677,211.854106 C46.6930732,161.664192 46.9787968,120.160901 47.3213404,119.624391 C47.663884,119.088688 51.220006,116.755474 55.2233826,114.439202 C63.3778679,109.721948 93.4949166,92.4890823 107.146333,84.729452 C121.612712,76.5067289 131.28348,70.8519934 134.633426,68.6567393 L137.76908,66.6026722 L135.850998,65.0835014 C133.839569,63.4909137 123.547839,57.4005156 115.26348,52.901092 C108.655311,49.3117185 94.5298527,41.1688669 92.557386,39.8118595 C90.4233882,38.343516 87.3908224,38.5234283 84.4183234,40.2959286 C83.0789942,41.0946429 75.5909264,45.3746218 67.7781731,49.8070825 Z M249.824496,98.8314738 C260.445368,105.02711 263.447615,107.378985 269.629232,114.342729 C275.443782,120.893806 280.283764,129.787893 282.654466,138.275761 C284.266191,144.045835 284.335116,146.037433 284.29905,185.728353 C284.257375,231.494817 284.16681,232.516005 279.168942,243.39363 C275.057482,252.34333 268.230694,261.057681 261.011996,266.568226 C259.485225,267.734492 254.809541,270.65862 250.621943,273.066914 C246.434344,275.474403 235.614712,281.743384 226.578315,286.997625 C189.061441,308.810907 186.661887,309.846603 172.05939,310.517185 C158.143741,311.15714 149.008765,308.47481 132.407442,298.873871 C128.881043,296.834719 125.54539,294.61019 124.99399,293.930741 C124.210969,292.965167 123.992172,278.323573 123.992172,226.816052 C123.992172,170.092976 124.154867,160.773327 125.163898,159.758587 C125.808267,159.110572 129.325049,156.864281 132.978077,154.767098 C136.631106,152.669916 143.768055,148.515043 148.837254,145.534496 C163.328348,137.011971 176.531505,129.307523 186.104876,123.7865 C190.953674,120.990525 199.970035,115.708074 206.141232,112.048079 C228.158783,98.9894475 237.4268,93.9423456 239.405591,93.9334638 C240.509995,93.9286437 245.198502,96.1330233 249.824496,98.8314738" />
</svg>

<svg xmlns="http://www.w3.org/2000/svg" version="1.1" viewBox="0 0 1280 372"><g fill="#31a4d4"><path d="m1184.877 278.795-47.656-.126-6.744-16.318zm-177.91-.126 9.332-26.927h38.502l9.778 26.798zm-72.565 0h-18.179l19.393-4.384m-122.62 4.369h-80c21.56-3.29 37.192-7.475 46.898-12.554 9.705-5.078 20.697-14.823 32.973-29.236l.13 41.79Z"/><path d="m733.715 278.7-166.795-.753c23.955-4.805 40.6-10.32 49.933-16.542 9.334-6.223 19.66-18.69 30.98-37.404 12.757 19.775 24.214 32.897 34.37 39.366 10.157 6.47 27.328 11.58 51.512 15.334Z"/></g><path d="M1185.847 93.933c53.148 0 93.715 40.054 93.715 92.431 0 52.377-40.567 92.43-93.715 92.43-53.147 0-93.714-40.053-93.714-92.43 0-52.377 40.567-92.43 93.714-92.43Zm.282 16.282c-44.073 0-77.714 33.215-77.714 76.65s33.64 76.65 77.714 76.65 77.714-33.215 77.714-76.65-33.64-76.65-77.714-76.65Zm0 45.777c17.46 0 30.873 13.414 30.873 30.873 0 17.46-13.414 30.873-30.873 30.873-17.459 0-30.873-13.414-30.873-30.873 0-17.46 13.414-30.873 30.873-30.873Z" fill="#31a4d4"/><path d="m1062.732 98.943 75.742 179.726h-74.457l-9.633-25.932h-37.928l-9.037 25.932h-74.347l75.742-179.726h53.918Zm-8.689 15.03h-36.54l-63.114 151.645h45.07l8.832-24.109h52.866l9.76 24.109h45.873l-62.747-151.645Zm-18.27 56.36 10.02 27.553h-20.04l10.02-27.553Z" fill="#31a4d4"/><path d="M903.759 98.943c38 0 61.735 21.663 61.735 51.703 0 18.743-2.004 21.805-11.47 35.147 10.686 11.221 11.47 11.207 11.47 39.888 0 30.543-15.777 52.988-54.29 52.988h-99.619V98.943Zm-1.912 15.03h-73.98v149.04h79.956l.922-.004c30.236-.297 42.38-15.263 42.38-40.347 0-18.524-2.911-30.762-18.367-36.724 11.128-6.174 16.818-17.513 16.818-33.056 0-24.91-17.23-38.91-47.729-38.91Zm-5.513 88.923c7.73 0 11.69 5.978 11.69 15.656s-3.96 15.655-11.69 15.655h-23.379v-31.31Zm-1.461-62.622c8.998 0 13.15 5.636 13.15 15.656s-4.152 15.655-13.15 15.655h-21.918v-31.311Z" fill="#31a4d4"/><path d="M733.714 93.933c53.148 0 93.715 40.054 93.715 92.431 0 52.377-40.567 92.43-93.715 92.43-53.147 0-93.714-40.053-93.714-92.43 0-52.377 40.567-92.43 93.714-92.43Zm.282 16.282c-44.073 0-77.714 33.215-77.714 76.65s33.64 76.65 77.714 76.65 77.714-33.215 77.714-76.65-33.64-76.65-77.714-76.65Zm0 45.777c17.46 0 30.873 13.414 30.873 30.873 0 17.46-13.414 30.873-30.873 30.873-17.459 0-30.873-13.414-30.873-30.873 0-17.46 13.414-30.873 30.873-30.873Z" fill="#31a4d4"/><path d="M561.096 97.69c55.859 0 93.933 38.648 93.933 90.177 0 51.53-38.074 90.176-93.933 90.176h-78.904V97.691Zm-.564 16.283h-67.068v149.04h67.068l1.42-.009c46.705-.63 78.424-32.354 78.424-74.51 0-42.584-32.363-74.521-79.844-74.521Zm0 43.647c19.589 0 33.002 13.201 33.002 30.873s-13.2 30.873-33.002 30.873h-20.227V157.62Z" fill="#31a4d4"/><path d="M483.147 97.69v180.353H408V97.691h75.147Zm-13.251 16.34h-48.12v149.56h48.12V114.03ZM162.068.725c-11.517.98-20.968 5.018-41.171 17.593-6.083 3.785-6.138 3.48 1.407 7.874 12.392 7.218 35.652 20.883 38.345 22.527 2.215 1.352 3.49 1.652 4.877 1.147 2.745-.999 51.172-29.688 51.147-30.301-.04-1.012-20.547-12.688-26.196-14.916-5.071-2-18.256-4.949-20.681-4.625-.495.065-3.972.382-7.728.7m75.327 40.51-11.24 6.535c-1.546.9-5.52 3.164-8.832 5.033-7.652 4.318-43.21 24.952-71.858 41.7-5.299 3.098-18.125 10.513-28.502 16.48-10.377 5.966-20.313 11.74-22.079 12.832-1.766 1.092-6.914 4.14-11.441 6.777l-8.23 4.792-.036 4.204c-.02 2.312-.033 45.327-.03 95.587.01 90.574.025 91.396 1.625 92.705.889.727 11.578 7.068 23.755 14.09 12.178 7.023 23.477 13.576 25.11 14.561 8.605 5.195 21.293 11.533 26.251 13.113 7.135 2.273 20.774 3.036 28.819 1.611 10.47-1.853 13.388-3.3 51.469-25.538 4.857-2.836 9.373-5.5 10.036-5.92.662-.42 6.804-3.948 13.649-7.84 56.58-32.182 63.199-36.537 70.366-46.3 4.46-6.076 8.506-14.561 10.442-21.9 1.394-5.284 1.487-10.123 1.487-77.695 0-81.579.424-75.828-6.664-90.153-3.077-6.218-5.034-8.903-10.598-14.532-5.772-5.838-8.683-7.97-18.868-13.82a3293.108 3293.108 0 0 1-19.269-11.15c-22.764-13.336-34.825-20.1-35.814-20.086-.615.009-4.912 2.22-9.548 4.915M67.778 49.807C36.612 67.49 26.586 73.46 22.125 77 13.34 83.97 5.1 97.033 1.493 109.707.094 114.62 0 119.487 0 186.755v71.804l1.878 6.454c2.862 9.832 7.76 18.357 14.762 25.695 6.623 6.94 11.268 10.346 22.008 16.132l6.991 3.767.518-3.749c.284-2.061.522-44.813.529-95.004.007-50.19.293-91.693.635-92.23.343-.535 3.899-2.869 7.902-5.185 8.155-4.717 38.272-21.95 51.923-29.71 14.467-8.222 24.137-13.877 27.487-16.072l3.136-2.054-1.918-1.52c-2.011-1.592-12.303-7.682-20.588-12.182-6.608-3.59-20.733-11.732-22.706-13.09-2.134-1.467-5.166-1.288-8.139.485-1.339.799-8.827 5.079-16.64 9.511Zm182.046 49.024c10.621 6.196 13.624 8.548 19.805 15.512 5.815 6.55 10.655 15.445 13.025 23.933 1.612 5.77 1.681 7.761 1.645 47.452-.042 45.767-.132 46.788-5.13 57.666-4.112 8.95-10.938 17.664-18.157 23.174-1.527 1.166-6.202 4.09-10.39 6.499a7772.16 7772.16 0 0 0-24.044 13.93c-37.517 21.814-39.916 22.85-54.519 23.52-13.915.64-23.05-2.042-39.652-11.643-3.526-2.04-6.862-4.264-7.413-4.943-.783-.966-1.002-15.607-1.002-67.115 0-56.723.163-66.043 1.172-67.057.644-.648 4.161-2.895 7.814-4.992 3.653-2.097 10.79-6.252 15.86-9.233 14.49-8.522 27.694-16.226 37.267-21.747a2327.223 2327.223 0 0 0 20.036-11.739c22.018-13.059 31.286-18.106 33.265-18.115 1.104-.004 5.793 2.2 10.418 4.898" fill="#31a4d4"/></svg>
